assets_src/svg/book_search_24_regular.svg

<svg xmlns="http://www.w3.org/2000/svg" width="24" height="24" viewBox="0 0 24 24"><path d="M17.5 2C18.880713 2 20 3.119288 20 4.5V19.5C20 20.880713 18.880713 22 17.5 22H4.25C3.835786 22 3.5 21.664213 3.5 21.25C3.5 20.835787 3.835786 20.5 4.25 20.5H17.5C18.052284 20.5 18.5 20.052284 18.5 19.5H4.25C3.835786 19.5 3.5 19.164213 3.5 18.75V4.5C3.5 3.119288 4.619288 2 6 2ZM5 18H18.5V4.5C18.5 3.947715 18.052284 3.5 17.5 3.5H6C5.447715 3.5 5 3.947715 5 4.5ZM13.784 11.795 16.253 14.265C16.518967 14.533473 16.533703 14.96135 16.286837 15.247485C16.039968 15.53362 15.614552 15.581749 15.31 15.358L15.303 15.352L15.236 15.294L12.76 12.819C11.167768 13.884434 9.026963 13.567971 7.811087 12.087431C6.595212 10.606891 6.701037 8.445411 8.055724 7.090724C9.410411 5.736037 11.571891 5.630212 13.052431 6.846087C14.532971 8.061963 14.849434 10.202767 13.784 11.795ZM10.689 7.447C9.431724 7.447 8.4125 8.466224 8.4125 9.7235C8.4125 10.980776 9.431724 12 10.689 12C11.946277 12 12.9655 10.980776 12.9655 9.7235C12.9655 8.466224 11.946277 7.447 10.689 7.447Z"/></svg>

<svg xmlns="http://www.w3.org/2000/svg" width="24" height="24" fill="none" viewBox="0 0 24 24"><path fill="#212121" d="M13.784 11.795a3.724 3.724 0 1 0-1.024 1.024l2.476 2.475.067.058.007.006a.724.724 0 0 0 .943-1.093zm-3.095-4.348a2.276 2.276 0 1 1 0 4.553 2.276 2.276 0 0 1 0-4.553"/><path fill="#212121" d="M17.5 2A2.5 2.5 0 0 1 20 4.5v15a2.5 2.5 0 0 1-2.5 2.5H4.25a.75.75 0 0 1 0-1.5H17.5a1 1 0 0 0 1-1H4.25a.75.75 0 0 1-.75-.75V4.5A2.5 2.5 0 0 1 6 2zM5 18h13.5V4.5a1 1 0 0 0-1-1H6a1 1 0 0 0-1 1z"/></svg>
